(1001)
(T1  D=1.5 CR=0. - ZMIN=-4. - SCHAFTFRSER)
(T2  D=1.0 CR=0. - ZMIN=-4. - SCHAFTFRSER)
(T2  D=0.5 CR=0. - ZMIN=-4. - SCHAFTFRSER)

G0 G90 G94 G17
G21
G53 Z0.

(2D CONTOUR2)
M5
M9
T1 M6
M3 S8000
G54
M9
G0 X9.503 Y9.704

(2D CONTOUR3)
M9
T2 M6
G0 X15.15 Y-1.965
Z7.
Z5.
G1 Z2. F600.

(2D CONTOUR2 2)
M9
T3 M6
G0 X22.776 Y16.977
Z7.
Z5.

M9
G53 Z0.
M30
